Numix-Circle/48x48/apps/oracle-sqldeveloper.svg

<?xml version="1.0" encoding="UTF-8" standalone="no"?>
<svg
   xmlns:dc="http://purl.org/dc/elements/1.1/"
   xmlns:cc="http://creativecommons.org/ns#"
   xmlns:rdf="http://www.w3.org/1999/02/22-rdf-syntax-ns#"
   xmlns:svg="http://www.w3.org/2000/svg"
   xmlns="http://www.w3.org/2000/svg"
   xmlns:xlink="http://www.w3.org/1999/xlink"
   xmlns:sodipodi="http://sodipodi.sourceforge.net/DTD/sodipodi-0.dtd"
   xmlns:inkscape="http://www.inkscape.org/namespaces/inkscape"
   viewBox="0 0 48 48"
   id="svg2"
   version="1.1"
   inkscape:version="0.48.4 r9939"
   width="100%"
   height="100%"
   sodipodi:docname="oracle-sqldeveloper2.svg">
  <metadata
     id="metadata61">
    <rdf:RDF>
      <cc:Work
         rdf:about="">
        <dc:format>image/svg+xml</dc:format>
        <dc:type
           rdf:resource="http://purl.org/dc/dcmitype/StillImage" />
        <dc:title></dc:title>
      </cc:Work>
    </rdf:RDF>
  </metadata>
  <sodipodi:namedview
     pagecolor="#ffffff"
     bordercolor="#666666"
     borderopacity="1"
     objecttolerance="10"
     gridtolerance="10"
     guidetolerance="10"
     inkscape:pageopacity="0"
     inkscape:pageshadow="2"
     inkscape:window-width="1871"
     inkscape:window-height="1056"
     id="namedview59"
     showgrid="true"
     inkscape:zoom="8.0000002"
     inkscape:cx="62.699899"
     inkscape:cy="36.020365"
     inkscape:window-x="49"
     inkscape:window-y="24"
     inkscape:window-maximized="1"
     inkscape:current-layer="g29">
    <inkscape:grid
       type="xygrid"
       id="grid3040" />
  </sodipodi:namedview>
  <defs
     id="defs4">
    <linearGradient
       id="linearGradient3952">
      <stop
         style="stop-color:#474747;stop-opacity:1;"
         offset="0"
         id="stop3954" />
      <stop
         style="stop-color:#474751;stop-opacity:1;"
         offset="1"
         id="stop3956" />
    </linearGradient>
    <linearGradient
       inkscape:collect="always"
       xlink:href="#linearGradient3952"
       id="linearGradient3958"
       x1="25"
       y1="48"
       x2="25"
       y2="0.1351461"
       gradientUnits="userSpaceOnUse" />
    <clipPath
       id="clipPath-131538609">
      <g
         transform="translate(0,-1004.3622)"
         id="g17-8">
        <path
           style="fill:#1890d0"
           inkscape:connector-curvature="0"
           d="m -24,13 c 0,1.105 -0.672,2 -1.5,2 -0.828,0 -1.5,-0.895 -1.5,-2 0,-1.105 0.672,-2 1.5,-2 0.828,0 1.5,0.895 1.5,2 z"
           transform="matrix(15.333333,0,0,11.5,414.99999,878.8622)"
           id="path19-5" />
      </g>
    </clipPath>
  </defs>
  <g
     id="g21">
    <path
       d="m 36.31 5 c 5.859 4.062 9.688 10.831 9.688 18.5 c 0 12.426 -10.07 22.5 -22.5 22.5 c -7.669 0 -14.438 -3.828 -18.5 -9.688 c 1.037 1.822 2.306 3.499 3.781 4.969 c 4.085 3.712 9.514 5.969 15.469 5.969 c 12.703 0 23 -10.298 23 -23 c 0 -5.954 -2.256 -11.384 -5.969 -15.469 c -1.469 -1.475 -3.147 -2.744 -4.969 -3.781 z m 4.969 3.781 c 3.854 4.113 6.219 9.637 6.219 15.719 c 0 12.703 -10.297 23 -23 23 c -6.081 0 -11.606 -2.364 -15.719 -6.219 c 4.16 4.144 9.883 6.719 16.219 6.719 c 12.703 0 23 -10.298 23 -23 c 0 -6.335 -2.575 -12.06 -6.719 -16.219 z"
       opacity="0.05"
       id="path23" />
    <path
       d="m 41.28 8.781 c 3.712 4.085 5.969 9.514 5.969 15.469 c 0 12.703 -10.297 23 -23 23 c -5.954 0 -11.384 -2.256 -15.469 -5.969 c 4.113 3.854 9.637 6.219 15.719 6.219 c 12.703 0 23 -10.298 23 -23 c 0 -6.081 -2.364 -11.606 -6.219 -15.719 z"
       opacity="0.1"
       id="path25" />
    <path
       d="m 31.25 2.375 c 8.615 3.154 14.75 11.417 14.75 21.13 c 0 12.426 -10.07 22.5 -22.5 22.5 c -9.708 0 -17.971 -6.135 -21.12 -14.75 a 23 23 0 0 0 44.875 -7 a 23 23 0 0 0 -16 -21.875 z"
       opacity="0.2"
       id="path27" />
  </g>
  <g
     id="g29">
    <path
       d="m 24 1 c 12.703 0 23 10.297 23 23 c 0 12.703 -10.297 23 -23 23 -12.703 0 -23 -10.297 -23 -23 0 -12.703 10.297 -23 23 -23 z"
       id="path31"
       style="fill:url(#linearGradient3958);fill-opacity:1.0"
       fill-opacity="1"
       fill="url(#linearGradient3764)" />
  </g>
  <g
     id="g33" />
  <g
     id="g55">
    <path
       d="m 40.03 7.531 c 3.712 4.084 5.969 9.514 5.969 15.469 0 12.703 -10.297 23 -23 23 c -5.954 0 -11.384 -2.256 -15.469 -5.969 4.178 4.291 10.01 6.969 16.469 6.969 c 12.703 0 23 -10.298 23 -23 0 -6.462 -2.677 -12.291 -6.969 -16.469 z"
       id="path57"
       opacity="0.1" />
  </g>
  <path
     sodipodi:type="star"
     style="fill:#dddddd;fill-opacity:0;fill-rule:nonzero;stroke:none"
     id="path3795"
     sodipodi:sides="3"
     sodipodi:cx="30"
     sodipodi:cy="31.499998"
     sodipodi:r1="5.9296002"
     sodipodi:r2="2.9647999"
     sodipodi:arg1="2.574055"
     sodipodi:arg2="3.6212526"
     inkscape:flatsided="false"
     inkscape:rounded="0"
     inkscape:randomized="0"
     d="m 25,34.687498 2.369772,-4.555688 2.369772,-4.555689 2.760456,4.330127 2.760456,4.330127 -5.130228,0.225561 z"
     inkscape:transform-center-x="-0.89720796"
     inkscape:transform-center-y="0.0022307614"
     transform="matrix(0.53793169,-0.22905492,0.28086037,0.43870874,7.0024856,25.085848)" />
  <path
     style="opacity:0.1;fill:#000000;fill-opacity:1;fill-rule:nonzero;stroke:none"
     d="m 25,13 c -5.521105,0 -10,1.877135 -10,3.59375 l 0,3.8125 c 0,0.45058 0.317672,0.906306 0.875,1.34375 C 15.317756,22.188012 15,22.642124 15,23.09375 l 0,3.8125 c 0,0.45058 0.317672,0.906306 0.875,1.34375 C 15.317756,28.688012 15,29.142124 15,29.59375 l 0,3.8125 C 15,35.118888 19.479896,37 25,37 26.623383,37 28.144414,36.836427 29.5,36.5625 30.40229,37.449404 31.634849,38 33,38 c 2.761424,0 5,-2.238576 5,-5 0,-2.323048 -1.602978,-4.250958 -3.75,-4.8125 C 34.74425,27.774195 35,27.329082 35,26.90625 l 0,-3.8125 C 35,22.642124 34.682401,22.188012 34.125,21.75 34.682401,21.312556 35,20.85683 35,20.40625 l 0,-3.8125 C 35,14.877135 30.524104,13 25,13 z"
     id="path57-0-6"
     inkscape:connector-curvature="0" />
  <g
     id="g3817">
    <g
       transform="translate(0,-0.5000002)"
       id="g4113">
      <path
         transform="matrix(1,0,0,0.99398638,0,0.08419065)"
         d="m 23.998,12.490925 c -5.521105,0 -9.998,1.901025 -9.998,3.628025 l 0,3.8145 c 0,1.723 4.477896,3.624025 9.998,3.624025 5.524104,0 10.002,-1.901025 10.002,-3.624025 l 0,-3.8145 c 0,-1.727 -4.477896,-3.628025 -10.002,-3.628025"
         id="path57-0"
         inkscape:connector-curvature="0"
         style="fill:#999999;fill-opacity:1;fill-rule:nonzero;stroke:none"
         sodipodi:nodetypes="csssssc" />
      <path
         transform="matrix(1,0,0,0.99398638,0,0.08419065)"
         sodipodi:nodetypes="csssssc"
         style="fill:#999999;fill-opacity:1;fill-rule:nonzero;stroke:none"
         inkscape:connector-curvature="0"
         id="path4024"
         d="m 23.998,19.03025 c -5.521105,0 -9.998,1.901025 -9.998,3.628025 l 0,3.8145 c 0,1.723 4.477896,3.624025 9.998,3.624025 5.524104,0 10.002,-1.901025 10.002,-3.624025 l 0,-3.8145 c 0,-1.727 -4.477896,-3.628025 -10.002,-3.628025" />
      <path
         transform="matrix(1,0,0,0.99398638,0,0.08419065)"
         d="M 23.998,25.569575 C 18.476895,25.569575 14,27.4706 14,29.1976 l 0,3.8145 c 0,1.723 4.477896,3.624025 9.998,3.624025 C 29.522104,36.636125 34,34.7351 34,33.0121 l 0,-3.8145 c 0,-1.727 -4.477896,-3.628025 -10.002,-3.628025"
         id="path4080"
         inkscape:connector-curvature="0"
         style="fill:#999999;fill-opacity:1;fill-rule:nonzero;stroke:none"
         sodipodi:nodetypes="csssssc" />
      <path
         style="fill:#d2d2d2;fill-opacity:1;fill-rule:nonzero;stroke:none"
         d="M 33,16.200001 C 33,17.856854 28.970563,19.5 24,19.5 19.029437,19.5 15,17.856854 15,16.200001 15,14.543147 19.029437,13.1 24,13.1 c 4.970563,0 9,1.443147 9,3.100001 z"
         id="path3141"
         inkscape:connector-curvature="0"
         sodipodi:nodetypes="sssss" />
      <path
         style="fill:#d2d2d2;fill-opacity:1;fill-rule:nonzero;stroke:none"
         d="M 15.5625,21.688 C 15.213972,22.015102 15,22.327638 15,22.6875 15,24.344353 19.029437,26 24,26 28.970563,26 33,24.344353 33,22.6875 33,22.322489 32.795607,21.987122 32.4375,21.656 30.663574,22.699328 27.566197,23.5 24,23.5 c -3.541342,0 -6.658421,-0.778046 -8.4375,-1.812 z"
         id="path4026"
         inkscape:connector-curvature="0"
         sodipodi:nodetypes="cssscsc" />
      <path
         sodipodi:nodetypes="cssscsc"
         inkscape:connector-curvature="0"
         id="path4082"
         d="M 15.5625,28.188 C 15.213972,28.515102 15,28.827638 15,29.1875 c 0,1.656853 4.029437,3.3125 9,3.3125 4.970563,0 9,-1.655647 9,-3.3125 C 33,28.822489 32.795607,28.487122 32.4375,28.156 30.663574,29.199328 27.566197,30 24,30 20.458658,30 17.341579,29.221954 15.5625,28.188 z"
         style="fill:#d2d2d2;fill-opacity:1;fill-rule:nonzero;stroke:none" />
    </g>
    <path
       transform="matrix(3.9278191,0,0,2.5,-0.49473449,-20.5)"
       d="m 9.5459422,21 a 1.272971,2 0 1 1 -2.5459421,0 1.272971,2 0 1 1 2.5459421,0 z"
       sodipodi:ry="2"
       sodipodi:rx="1.272971"
       sodipodi:cy="21"
       sodipodi:cx="8.2729712"
       id="path3025"
       style="fill:#36ab27;fill-opacity:1;fill-rule:nonzero;stroke:none"
       sodipodi:type="arc" />
    <path
       transform="matrix(0.83333333,0,0,0.72168784,6.6666668,11.071053)"
       inkscape:transform-center-x="-0.83333326"
       d="M 34,29 31,30.732051 28,32.464102 28,29 l 0,-3.464102 3,1.732051 z"
       inkscape:randomized="0"
       inkscape:rounded="0"
       inkscape:flatsided="false"
       sodipodi:arg2="1.0471976"
       sodipodi:arg1="0"
       sodipodi:r2="1.9999999"
       sodipodi:r1="4"
       sodipodi:cy="29"
       sodipodi:cx="30"
       sodipodi:sides="3"
       id="path3797"
       style="fill:#dddddd;fill-opacity:1;fill-rule:nonzero;stroke:none"
       sodipodi:type="star" />
  </g>
</svg>

<svg xmlns="http://www.w3.org/2000/svg" viewBox="0 0 48 48">
 <defs>
  <linearGradient id="linearGradient3958" y1="48" x2="0" y2="0.135" gradientUnits="userSpaceOnUse">
   <stop style="stop-color:#474747;stop-opacity:1"/>
   <stop offset="1" style="stop-color:#474751;stop-opacity:1"/>
  </linearGradient>
 </defs>
 <g>
  <path d="m 36.31 5 c 5.859 4.062 9.688 10.831 9.688 18.5 c 0 12.426 -10.07 22.5 -22.5 22.5 c -7.669 0 -14.438 -3.828 -18.5 -9.688 c 1.037 1.822 2.306 3.499 3.781 4.969 c 4.085 3.712 9.514 5.969 15.469 5.969 c 12.703 0 23 -10.298 23 -23 c 0 -5.954 -2.256 -11.384 -5.969 -15.469 c -1.469 -1.475 -3.147 -2.744 -4.969 -3.781 z m 4.969 3.781 c 3.854 4.113 6.219 9.637 6.219 15.719 c 0 12.703 -10.297 23 -23 23 c -6.081 0 -11.606 -2.364 -15.719 -6.219 c 4.16 4.144 9.883 6.719 16.219 6.719 c 12.703 0 23 -10.298 23 -23 c 0 -6.335 -2.575 -12.06 -6.719 -16.219 z" style="opacity:0.05"/>
  <path d="m 41.28 8.781 c 3.712 4.085 5.969 9.514 5.969 15.469 c 0 12.703 -10.297 23 -23 23 c -5.954 0 -11.384 -2.256 -15.469 -5.969 c 4.113 3.854 9.637 6.219 15.719 6.219 c 12.703 0 23 -10.298 23 -23 c 0 -6.081 -2.364 -11.606 -6.219 -15.719 z" style="opacity:0.1"/>
  <path d="m 31.25 2.375 c 8.615 3.154 14.75 11.417 14.75 21.13 c 0 12.426 -10.07 22.5 -22.5 22.5 c -9.708 0 -17.971 -6.135 -21.12 -14.75 a 23 23 0 0 0 44.875 -7 a 23 23 0 0 0 -16 -21.875 z" style="opacity:0.2"/>
 </g>
 <g>
  <path d="m 24 1 c 12.703 0 23 10.297 23 23 c 0 12.703 -10.297 23 -23 23 -12.703 0 -23 -10.297 -23 -23 0 -12.703 10.297 -23 23 -23 z" style="fill:url(#linearGradient3958);fill-opacity:1"/>
 </g>
 <g>
  <path d="m 40.03 7.531 c 3.712 4.084 5.969 9.514 5.969 15.469 0 12.703 -10.297 23 -23 23 c -5.954 0 -11.384 -2.256 -15.469 -5.969 4.178 4.291 10.01 6.969 16.469 6.969 c 12.703 0 23 -10.298 23 -23 0 -6.462 -2.677 -12.291 -6.969 -16.469 z" style="opacity:0.1"/>
 </g>
 <path d="m 25 34.687 2.37 -4.556 2.37 -4.556 2.76 4.33 2.76 4.33 -5.13 0.226 z" transform="matrix(0.53793169,-0.22905492,0.28086037,0.43870874,7.0024856,25.085848)" style="fill:#ddd;fill-opacity:0;stroke:none;fill-rule:nonzero"/>
 <path d="m 25 13 c -5.521 0 -10 1.877 -10 3.594 l 0 3.813 c 0 0.451 0.318 0.906 0.875 1.344 c -0.557 0.438 -0.875 0.892 -0.875 1.344 l 0 3.813 c 0 0.451 0.318 0.906 0.875 1.344 c -0.557 0.438 -0.875 0.892 -0.875 1.344 l 0 3.813 c 0 1.713 4.48 3.594 10 3.594 1.623 0 3.144 -0.164 4.5 -0.438 0.902 0.887 2.135 1.438 3.5 1.438 c 2.761 0 5 -2.239 5 -5 0 -2.323 -1.603 -4.251 -3.75 -4.813 c 0.494 -0.413 0.75 -0.858 0.75 -1.281 l 0 -3.813 c 0 -0.452 -0.318 -0.906 -0.875 -1.344 0.557 -0.437 0.875 -0.893 0.875 -1.344 l 0 -3.813 c 0 -1.717 -4.476 -3.594 -10 -3.594 z" style="fill:#000;opacity:0.1;fill-opacity:1;stroke:none;fill-rule:nonzero"/>
 <g>
  <g transform="translate(0,-0.5000002)">
   <path transform="matrix(1,0,0,0.99398638,0,0.08419065)" d="m 23.998 12.491 c -5.521 0 -9.998 1.901 -9.998 3.628 l 0 3.814 c 0 1.723 4.478 3.624 9.998 3.624 5.524 0 10 -1.901 10 -3.624 l 0 -3.814 c 0 -1.727 -4.478 -3.628 -10 -3.628" style="fill:#999;fill-opacity:1;stroke:none;fill-rule:nonzero"/>
   <path transform="matrix(1,0,0,0.99398638,0,0.08419065)" d="m 23.998 19.03 c -5.521 0 -9.998 1.901 -9.998 3.628 l 0 3.814 c 0 1.723 4.478 3.624 9.998 3.624 5.524 0 10 -1.901 10 -3.624 l 0 -3.814 c 0 -1.727 -4.478 -3.628 -10 -3.628" style="fill:#999;fill-opacity:1;stroke:none;fill-rule:nonzero"/>
   <path transform="matrix(1,0,0,0.99398638,0,0.08419065)" d="m 23.998 25.57 c -5.521 0 -9.998 1.901 -9.998 3.628 l 0 3.815 c 0 1.723 4.478 3.624 9.998 3.624 c 5.524 0 10 -1.901 10 -3.624 l 0 -3.814 c 0 -1.727 -4.478 -3.628 -10 -3.628" style="fill:#999;fill-opacity:1;stroke:none;fill-rule:nonzero"/>
   <path d="m 33 16.2 c 0 1.657 -4.03 3.3 -9 3.3 -4.971 0 -9 -1.643 -9 -3.3 0 -1.657 4.03 -3.1 9 -3.1 c 4.971 0 9 1.443 9 3.1 z" style="fill:#d2d2d2;fill-opacity:1;stroke:none;fill-rule:nonzero"/>
   <path d="m 15.563 21.688 c -0.349 0.327 -0.563 0.64 -0.563 1 0 1.657 4.03 3.313 9 3.313 4.971 0 9 -1.656 9 -3.313 0 -0.365 -0.204 -0.7 -0.563 -1.032 -1.774 1.043 -4.871 1.844 -8.438 1.844 c -3.541 0 -6.658 -0.778 -8.438 -1.812 z" style="fill:#d2d2d2;fill-opacity:1;stroke:none;fill-rule:nonzero"/>
   <path d="m 15.563 28.19 c -0.349 0.327 -0.563 0.64 -0.563 1 c 0 1.657 4.03 3.313 9 3.313 4.971 0 9 -1.656 9 -3.313 c 0 -0.365 -0.204 -0.7 -0.563 -1.032 -1.774 1.043 -4.871 1.844 -8.438 1.844 -3.541 0 -6.658 -0.778 -8.438 -1.812 z" style="fill:#d2d2d2;fill-opacity:1;stroke:none;fill-rule:nonzero"/>
  </g>
  <path transform="matrix(3.9278191,0,0,2.5,-0.49473449,-20.5)" d="m 9.546 21 a 1.273 2 0 1 1 -2.546 0 1.273 2 0 1 1 2.546 0 z" style="fill:#36ab27;fill-opacity:1;stroke:none;fill-rule:nonzero"/>
  <path transform="matrix(0.83333333,0,0,0.72168784,6.6666668,11.071053)" d="m 34 29 -3 1.732 -3 1.732 0 -3.464 l 0 -3.464 3 1.732 z" style="fill:#ddd;fill-opacity:1;stroke:none;fill-rule:nonzero"/>
 </g>
</svg>
